assets/logo/react-router-logo.svg

<svg width="60" height="60" viewBox="0 0 60 60" fill="none" xmlns="http://www.w3.org/2000/svg">
<path d="M18.2967 35.2939C21.3009 35.2939 23.7363 32.8585 23.7363 29.8544C23.7363 26.8502 21.3009 24.4148 18.2967 24.4148C15.2925 24.4148 12.8571 26.8502 12.8571 29.8544C12.8571 32.8585 15.2925 35.2939 18.2967 35.2939ZM5.43956 46.173C8.44375 46.173 10.8791 43.7377 10.8791 40.7335C10.8791 37.7293 8.44375 35.2939 5.43956 35.2939C2.43537 35.2939 0 37.7293 0 40.7335C0 43.7377 2.43537 46.173 5.43956 46.173ZM54.5604 46.173C57.5646 46.173 60 43.7377 60 40.7335C60 37.7293 57.5646 35.2939 54.5604 35.2939C51.5563 35.2939 49.1209 37.7293 49.1209 40.7335C49.1209 43.7377 51.5563 46.173 54.5604 46.173Z" fill="black"/>
<path d="M36.695 30.0836C36.5211 28.2663 36.4326 26.7537 35.0403 25.6906C33.2772 24.3442 31.28 25.2178 28.8198 24.3298C26.4024 23.745 24.6094 21.5987 24.6094 19.0405C24.6094 16.0323 27.0886 13.5938 30.1468 13.5938C32.4119 13.5938 34.3593 14.9314 35.2171 16.8475C36.5299 19.3411 35.6767 21.8789 37.3261 23.1572C39.2793 24.6708 41.9124 23.5624 44.8505 24.9965C45.7946 25.4303 46.5937 26.1184 47.1567 26.9712C47.7198 27.8239 48.0469 28.8414 48.0469 29.934C48.0469 32.4922 46.2538 34.6385 43.8365 35.2233C41.3763 36.1113 39.3791 35.2377 37.6159 36.5841C35.6332 38.0981 36.6947 40.6309 35.0788 43.3065C34.1616 45.0683 32.2974 46.2742 30.1468 46.2742C27.0886 46.2742 24.6094 43.8356 24.6094 40.8275C24.6094 38.6423 25.9176 36.7576 27.8058 35.89C30.7439 34.4559 33.377 35.5643 35.3301 34.0507C36.4568 33.1775 36.695 31.8305 36.695 30.0836Z" fill="#D0021B"/>
</svg>

<svg xmlns="http://www.w3.org/2000/svg" width="60" height="60" fill="none"><path fill="#000" d="M18.297 35.294a5.44 5.44 0 1 0 0-10.88 5.44 5.44 0 0 0 0 10.88M5.44 46.173a5.44 5.44 0 1 0 0-10.879 5.44 5.44 0 0 0 0 10.879m49.12 0a5.44 5.44 0 1 0 0-10.88 5.44 5.44 0 0 0 0 10.88"/><path fill="#D0021B" d="M36.695 30.084c-.174-1.818-.262-3.33-1.655-4.393-1.763-1.347-3.76-.473-6.22-1.361-2.418-.585-4.21-2.731-4.21-5.29 0-3.008 2.479-5.446 5.537-5.446a5.54 5.54 0 0 1 5.07 3.254c1.313 2.493.46 5.03 2.11 6.31 1.952 1.513 4.585.404 7.523 1.838a5.53 5.53 0 0 1 2.307 1.975c.563.853.89 1.87.89 2.963 0 2.558-1.793 4.704-4.21 5.29-2.46.887-4.458.014-6.221 1.36-1.983 1.514-.921 4.047-2.537 6.722a5.55 5.55 0 0 1-4.932 2.968c-3.058 0-5.538-2.438-5.538-5.446 0-2.186 1.309-4.07 3.197-4.938 2.938-1.434 5.571-.326 7.524-1.84 1.127-.872 1.365-2.22 1.365-3.966"/></svg>
